X:1
T:Title
%%score ( 1 2 ) ( 3 4 )
L:1/8
Q:1/4=110
M:4/4
K:Eb
V:1 treble nm="Grand Piano, Soprano"
V:2 treble 
V:3 bass nm="Choir Pad, Galveston, J. Sweney, 1889"
V:4 bass 
V:1
 [EG]3 [EF] E2 [EG]2 | [GB]2 [Ac]2 [GB]4 | [Ge]3 [Ac] [GB]2 [EG]2 | [DF]6 z2 | %4
w: By~John~Robson~Sweney,~1889 * * *||||
 [EG]3 [EF] E2 [EG]2 | [GB]2 [Ac]2 [GB]4 | [Fd]3 [Fd] [Fd]2 [Ec]2 | B4- [AB]4 | %8
w: ||||
 [GB]2 [Ge]2 [Bd]2 [Ac]2 | [Ac]3 [GB] [GB]4 | [EA]2 [Ec]2 [EB]2 [EG]2 | [EG]3 [DF] [DF]4 | %12
w: ||||
 [EG]3 [FA] [GB]2 [EG]2 | [_Ge]3 [Gc] [=GB]4 | E3 [EG] [EG]2 [DF]2 | [B,E]8 |] %16
w: ||||
V:2
 x8 | x8 | x8 | x8 | x8 | x8 | x8 | D4 z4 | x8 | x8 | x8 | x8 | x8 | x8 | x8 | x8 |] %16
V:3
 [E,B,]3 [E,A,] [E,G,]2 [E,B,]2 | [E,E]2 [E,E]2 [E,E]4 | [E,B,]3 [E,E] [E,E]2 [E,B,]2 | %3
 [B,,B,]6 z2 | [E,B,]3 [E,A,] [E,G,]2 [E,B,]2 | [E,E]2 [E,E]2 [E,E]4 | %6
 [F,B,]3 [F,B,] [F,B,]2 [F,=A,]2 | B,4 D4 | [E,E]2 [E,B,]2 [E,B,]2 [E,E]2 | [E,E]3 [E,E] [E,E]4 | %10
 [A,C]2 A,2 [G,B,]2 [E,B,]2 | [B,,B,]3 [B,,B,] [B,,B,]4 | [E,B,]3 [E,B,] [E,E]2 [E,B,]2 | %13
 [E,=A,]3 [E,A,] [E,B,]4 | [B,,G,]3 [B,,B,] [B,,B,]2 [B,,A,]2 | [E,G,]8 |] %16
V:4
 x8 | x8 | x8 | x8 | x8 | x8 | x8 | B,,8 | x8 | x8 | x8 | x8 | x8 | x8 | x8 | x8 |] %16

